Newaita-dark/apps/32/com.github.kjlaw89.archetype.svg

<svg height="32pt" viewBox="0 0 32 32" width="32pt" xmlns="http://www.w3.org/2000/svg" xmlns:xlink="http://www.w3.org/1999/xlink"><linearGradient id="a" gradientUnits="userSpaceOnUse" x1="15.876521" x2="15.876521" y1="28.033934" y2="29.35697787502"><stop offset="0" stop-opacity=".27451"/><stop offset="1" stop-opacity="0"/></linearGradient><linearGradient id="b"><stop offset="0" stop-opacity=".313725"/><stop offset=".222222" stop-opacity=".27451"/><stop offset="1" stop-opacity="0"/></linearGradient><radialGradient id="c" cx="450.90894" cy="189.57936" gradientTransform="matrix(.00000017 -.0781325 -.140638 -.0000001 53.453691 63.595333)" gradientUnits="userSpaceOnUse" r="21.166656" xlink:href="#b"/><radialGradient id="d" cx="450.90894" cy="189.57936" gradientTransform="matrix(-.00000017 .0781325 .140638 .0000001 -21.700659 -7.52748)" gradientUnits="userSpaceOnUse" r="21.166656" xlink:href="#b"/><radialGradient id="e" cx="450.90894" cy="189.57936" gradientTransform="matrix(-.00000017 -.0781325 .140638 -.0000001 -21.700659 63.595333)" gradientUnits="userSpaceOnUse" r="21.166656" xlink:href="#b"/><radialGradient id="f" cx="450.90894" cy="189.57936" gradientTransform="matrix(.00000017 .0781325 -.140638 .0000001 53.453689 -7.527481)" gradientUnits="userSpaceOnUse" r="21.166656" xlink:href="#b"/><linearGradient id="g"><stop offset="0" stop-color="#7e57c2"/><stop offset="1" stop-color="#9575cd"/></linearGradient><linearGradient id="h" gradientTransform="matrix(.0753497 0 0 .217412 -5.854013 33.641349)" gradientUnits="userSpaceOnUse" x1="306.91666" x2="305.95456" xlink:href="#g" y1="-25.791676" y2="-135.32916"/><linearGradient id="i" gradientTransform="matrix(4.556143 0 0 13.146184 -353.97266 2034.1802)" gradientUnits="userSpaceOnUse" x1="306.91666" x2="305.95456" xlink:href="#g" y1="-25.791676" y2="-135.32916"/><linearGradient id="j" gradientUnits="userSpaceOnUse" x1="333.37491475" x2="333.37491475" y1="-121.04159841667" y2="-89.29164325"><stop offset="0" stop-color="#66bb6a"/><stop offset="1" stop-color="#81c784"/></linearGradient><linearGradient id="k" gradientUnits="userSpaceOnUse" x1="386.29150925" x2="386.29150925" y1="-121.04167558333" y2="-89.29163575"><stop offset="0" stop-color="#ffd54f"/><stop offset="1" stop-color="#ffe082"/></linearGradient><linearGradient id="l" gradientUnits="userSpaceOnUse" x1="439.2083" x2="439.2083" y1="-121.0416835" y2="-89.291686"><stop offset="0" stop-color="#e57373"/><stop offset="1" stop-color="#ef9a9a"/></linearGradient><linearGradient id="m" gradientUnits="userSpaceOnUse" x1="15.876524" x2="15.876524" y1="24.72632525004" y2="11.495888125"><stop offset="0" stop-color="#bdbdbd"/><stop offset="1" stop-color="#e0e0e0"/></linearGradient><path d="m4.628906 28.035156h22.492188v1.320313h-22.492188zm0 0" fill="url(#a)"/><path d="m27.121094 28.035156h2.648437v-1.324218h-2.648437zm0 0" fill="url(#c)"/><path d="m4.628906 28.035156h-2.644531v1.320313h2.644531zm0 0" fill="url(#d)"/><path d="m4.628906 28.035156h-2.644531v-1.324218h2.644531zm0 0" fill="url(#e)"/><path d="m27.121094 28.035156h2.648437v1.320313h-2.648437zm0 0" fill="url(#f)"/><path d="m3.308594 4.21875h25.136718c.730469 0 1.324219.59375 1.324219 1.324219v21.167969c0 .730468-.59375 1.324218-1.324219 1.324218h-25.136718c-.730469 0-1.324219-.59375-1.324219-1.324218v-21.167969c0-.730469.59375-1.324219 1.324219-1.324219zm0 0" fill="url(#h)"/><path d="m1.984375 9.511719h27.785156v.660156h-27.785156zm0 0" fill="#0a0d0e" fill-opacity=".235294"/><path d="m3.308594 28.046875c-.734375 0-1.324219-.589844-1.324219-1.324219v-.34375c0 .734375.589844 1.324219 1.324219 1.324219h25.136718c.734376 0 1.324219-.589844 1.324219-1.324219v.34375c0 .734375-.589843 1.324219-1.324219 1.324219zm0 0" fill-opacity=".235294"/><path d="m200.059638 255.093753c-44.405209 0-80.071095 35.665886-80.071095 80.071095v239.977086h1680.075803v-239.977086c0-44.405209-35.665886-80.071095-80.071095-80.071095zm0 0" fill="url(#i)" stroke="#212121" stroke-linecap="round" stroke-width="11.338583" transform="scale(.016538)"/><path d="m3.308594 4.296875c-.734375 0-1.324219.589844-1.324219 1.320313v.34375c0-.730469.589844-1.320313 1.324219-1.320313h25.136718c.734376 0 1.324219.589844 1.324219 1.320313v-.34375c0-.730469-.589843-1.320313-1.324219-1.320313zm0 0" fill="#fff" fill-opacity=".392157"/><path d="m3.308594 4.125c-.785156 0-1.417969.632812-1.417969 1.417969v21.167969c0 .785156.632813 1.417968 1.417969 1.417968h25.136718c.785157 0 1.417969-.632812 1.417969-1.417968v-21.167969c0-.785157-.632812-1.417969-1.417969-1.417969zm0 .1875h25.136718c.683594 0 1.230469.546875 1.230469 1.230469v21.167969c0 .683593-.546875 1.230468-1.230469 1.230468h-25.136718c-.683594 0-1.230469-.546875-1.230469-1.230468v-21.167969c0-.683594.546875-1.230469 1.230469-1.230469zm0 0" fill="#212121"/><g stroke="#212121" stroke-linecap="round"><path d="m333.405661-121.07147c8.749165 0 15.873485 7.12432 15.873485 15.935978 0 8.749165-7.12432 15.873485-15.873485 15.873485-8.811658 0-15.935978-7.12432-15.935978-15.873485 0-8.811658 7.12432-15.935978 15.935978-15.935978zm0 0" fill="url(#j)" stroke-width="3" transform="matrix(.062506 0 0 .062506 0 13.438783)"/><path d="m386.275613-121.07147c8.811658 0 15.873484 7.12432 15.873484 15.935978 0 8.749165-7.061826 15.873485-15.873484 15.873485-8.749165 0-15.873485-7.12432-15.873485-15.873485 0-8.811658 7.12432-15.935978 15.873485-15.935978zm0 0" fill="url(#k)" stroke-width="3" transform="matrix(.062506 0 0 .062506 0 13.438783)"/><path d="m439.208058-121.07147c8.749164 0 15.873484 7.12432 15.873484 15.935978 0 8.749165-7.12432 15.873485-15.873484 15.873485-8.749165 0-15.873484-7.12432-15.873484-15.873485 0-8.811658 7.124319-15.935978 15.873484-15.935978zm0 0" fill="url(#l)" stroke-width="3" transform="matrix(.062506 0 0 .062506 0 13.438783)"/></g><path d="m16.539062 11.496094c-.261718 0-.5.15625-.605468.394531l-5.292969 11.90625c-.191406.4375.128906.929687.605469.929687h1.984375c.265625 0 .507812-.160156.609375-.40625l1.484375-3.5625h2.308593l.570313 3.414063c.050781.320313.328125.554687.648437.554687h1.988282c.414062 0 .726562-.378906.644531-.789062l-2.3125-11.90625c-.0625-.308594-.332031-.535156-.648437-.535156zm.328126 2.644531h.332031l.332031 4.632813h-1.65625zm0 0" fill="url(#m)"/><path d="m16.539062 11.578125c-.261718 0-.5.152344-.605468.394531l-5.292969 11.90625c-.054687.128906-.066406.265625-.042969.390625.007813-.046875.023438-.097656.042969-.144531l5.292969-11.90625c.105468-.238281.34375-.394531.605468-.394531h1.984376c.316406 0 .585937.226562.648437.535156l2.3125 11.90625c.003906.003906.003906.003906.003906.003906.015625-.078125.015625-.164062-.003906-.25l-2.3125-11.90625c-.0625-.3125-.332031-.535156-.648437-.535156zm-.609374 7.277344-.054688.246093h1.65625l-.019531-.246093zm0 0" fill="#fbfbfb"/><path d="m16.867188 14.234375-.992188 4.632813h.089844l.902344-4.222657h.332031l.300781 4.222657h.03125l-.332031-4.632813zm-1.542969 6.613281-1.484375 3.5625c-.101563.246094-.34375.40625-.609375.40625h-1.984375c-.304688 0-.542969-.195312-.628906-.453125-.136719.417969.171874.867188.628906.867188h1.984375c.265625 0 .507812-.160157.609375-.40625l1.484375-3.5625h2.308593l.570313 3.414062c.050781.320313.328125.554688.648437.554688h1.988282c.414062 0 .726562-.378907.644531-.789063l-.015625-.089844c-.082031.265626-.328125.464844-.628906.464844h-1.988282c-.320312 0-.597656-.230468-.648437-.550781l-.570313-3.417969zm0 0" fill-opacity=".235294"/><path d="m1000.061992 695.130478c-15.825261 0-30.233334 9.447916-36.610678 23.855989l-320.048181 719.931259c-11.573698 26.454167 7.794531 56.215105 36.610678 56.215105h119.988543c16.061458 0 30.705729-9.684114 36.846875-24.564583l89.75521-215.412503h139.59297l34.484897 206.436982c3.070572 19.368229 19.840625 33.540104 39.208854 33.540104h120.224741c25.03698 0 43.932813-22.911198 38.972657-47.711979l-139.829168-719.93126c-3.779167-18.659635-20.076824-32.359114-39.208855-32.359114zm19.840625 159.905991h20.076823l20.076823 280.130733h-100.147918zm0 0" fill="none" stroke="#212121" stroke-linecap="round" stroke-linejoin="round" stroke-width="11.338583" transform="scale(.016538)"/></svg>

<?xml version="1.0" encoding="UTF-8"?>
<svg xmlns="http://www.w3.org/2000/svg" xmlns:xlink="http://www.w3.org/1999/xlink" width="32pt" height="32pt" viewBox="0 0 32 32" version="1.1">
<defs>
<linearGradient id="linear0" gradientUnits="userSpaceOnUse" x1="254" y1="233.5" x2="254" y2="254.66667" gradientTransform="matrix(0.062506,0,0,0.062506,-0.00000250024,13.438783)">
<stop offset="0" style="stop-color:rgb(0%,0%,0%);stop-opacity:0.27451;"/>
<stop offset="1" style="stop-color:rgb(0%,0%,0%);stop-opacity:0;"/>
</linearGradient>
<radialGradient id="radial0" gradientUnits="userSpaceOnUse" cx="450.90894" cy="189.57936" fx="450.90894" fy="189.57936" r="21.166656" gradientTransform="matrix(0.00000017417,-0.0781325,-0.140638,-0.000000101539,53.453691,63.595333)">
<stop offset="0" style="stop-color:rgb(0%,0%,0%);stop-opacity:0.313725;"/>
<stop offset="0.222222" style="stop-color:rgb(0%,0%,0%);stop-opacity:0.27451;"/>
<stop offset="1" style="stop-color:rgb(0%,0%,0%);stop-opacity:0;"/>
</radialGradient>
<radialGradient id="radial1" gradientUnits="userSpaceOnUse" cx="450.90894" cy="189.57936" fx="450.90894" fy="189.57936" r="21.166656" gradientTransform="matrix(-0.00000017417,0.0781325,0.140638,0.000000101539,-21.700659,-7.52748)">
<stop offset="0" style="stop-color:rgb(0%,0%,0%);stop-opacity:0.313725;"/>
<stop offset="0.222222" style="stop-color:rgb(0%,0%,0%);stop-opacity:0.27451;"/>
<stop offset="1" style="stop-color:rgb(0%,0%,0%);stop-opacity:0;"/>
</radialGradient>
<radialGradient id="radial2" gradientUnits="userSpaceOnUse" cx="450.90894" cy="189.57936" fx="450.90894" fy="189.57936" r="21.166656" gradientTransform="matrix(-0.00000017417,-0.0781325,0.140638,-0.000000101539,-21.700659,63.595333)">
<stop offset="0" style="stop-color:rgb(0%,0%,0%);stop-opacity:0.313725;"/>
<stop offset="0.222222" style="stop-color:rgb(0%,0%,0%);stop-opacity:0.27451;"/>
<stop offset="1" style="stop-color:rgb(0%,0%,0%);stop-opacity:0;"/>
</radialGradient>
<radialGradient id="radial3" gradientUnits="userSpaceOnUse" cx="450.90894" cy="189.57936" fx="450.90894" fy="189.57936" r="21.166656" gradientTransform="matrix(0.00000017417,0.0781325,-0.140638,0.000000101539,53.453689,-7.527481)">
<stop offset="0" style="stop-color:rgb(0%,0%,0%);stop-opacity:0.313725;"/>
<stop offset="0.222222" style="stop-color:rgb(0%,0%,0%);stop-opacity:0.27451;"/>
<stop offset="1" style="stop-color:rgb(0%,0%,0%);stop-opacity:0;"/>
</radialGradient>
<linearGradient id="linear1" gradientUnits="userSpaceOnUse" x1="306.91666" y1="-25.791676" x2="305.95456" y2="-135.32916" gradientTransform="matrix(0.0753497,0,0,0.217412,-5.854013,33.641349)">
<stop offset="0" style="stop-color:rgb(49.411765%,34.117647%,76.078431%);stop-opacity:1;"/>
<stop offset="1" style="stop-color:rgb(58.431373%,45.882353%,80.392157%);stop-opacity:1;"/>
</linearGradient>
<linearGradient id="linear2" gradientUnits="userSpaceOnUse" x1="306.91666" y1="-25.791676" x2="305.95456" y2="-135.32916" gradientTransform="matrix(4.556143,0,0,13.146184,-353.97266,2034.1802)">
<stop offset="0" style="stop-color:rgb(49.411765%,34.117647%,76.078431%);stop-opacity:1;"/>
<stop offset="1" style="stop-color:rgb(58.431373%,45.882353%,80.392157%);stop-opacity:1;"/>
</linearGradient>
<linearGradient id="linear3" gradientUnits="userSpaceOnUse" x1="349.25" y1="-158.08333" x2="349.25" y2="-115.75" gradientTransform="matrix(0.749999,0,0,0.749999,71.437764,-2.479259)">
<stop offset="0" style="stop-color:rgb(40%,73.333333%,41.568627%);stop-opacity:1;"/>
<stop offset="1" style="stop-color:rgb(50.588235%,78.039216%,51.764706%);stop-opacity:1;"/>
</linearGradient>
<linearGradient id="linear4" gradientUnits="userSpaceOnUse" x1="349.25" y1="-158.08333" x2="349.25" y2="-115.75" gradientTransform="matrix(0.750001,0,0,0.750001,124.35366,-2.47902)">
<stop offset="0" style="stop-color:rgb(100%,83.529412%,30.980392%);stop-opacity:1;"/>
<stop offset="1" style="stop-color:rgb(100%,87.843137%,50.980392%);stop-opacity:1;"/>
</linearGradient>
<linearGradient id="linear5" gradientUnits="userSpaceOnUse" x1="349.25" y1="-158.08333" x2="349.25" y2="-115.75" gradientTransform="matrix(0.75,0,0,0.75,177.2708,-2.479186)">
<stop offset="0" style="stop-color:rgb(89.803922%,45.098039%,45.098039%);stop-opacity:1;"/>
<stop offset="1" style="stop-color:rgb(93.72549%,60.392157%,60.392157%);stop-opacity:1;"/>
</linearGradient>
<linearGradient id="linear6" gradientUnits="userSpaceOnUse" x1="254" y1="180.58334" x2="254" y2="-31.083334" gradientTransform="matrix(0.062506,0,0,0.062506,0,13.438783)">
<stop offset="0" style="stop-color:rgb(74.117647%,74.117647%,74.117647%);stop-opacity:1;"/>
<stop offset="1" style="stop-color:rgb(87.843137%,87.843137%,87.843137%);stop-opacity:1;"/>
</linearGradient>
</defs>
<g id="surface1">
<path style=" stroke:none;fill-rule:nonzero;fill:url(#linear0);" d="M 4.628906 28.035156 L 27.121094 28.035156 L 27.121094 29.355469 L 4.628906 29.355469 Z M 4.628906 28.035156 "/>
<path style=" stroke:none;fill-rule:nonzero;fill:url(#radial0);" d="M 27.121094 28.035156 L 29.769531 28.035156 L 29.769531 26.710938 L 27.121094 26.710938 Z M 27.121094 28.035156 "/>
<path style=" stroke:none;fill-rule:nonzero;fill:url(#radial1);" d="M 4.628906 28.035156 L 1.984375 28.035156 L 1.984375 29.355469 L 4.628906 29.355469 Z M 4.628906 28.035156 "/>
<path style=" stroke:none;fill-rule:nonzero;fill:url(#radial2);" d="M 4.628906 28.035156 L 1.984375 28.035156 L 1.984375 26.710938 L 4.628906 26.710938 Z M 4.628906 28.035156 "/>
<path style=" stroke:none;fill-rule:nonzero;fill:url(#radial3);" d="M 27.121094 28.035156 L 29.769531 28.035156 L 29.769531 29.355469 L 27.121094 29.355469 Z M 27.121094 28.035156 "/>
<path style=" stroke:none;fill-rule:nonzero;fill:url(#linear1);" d="M 3.308594 4.21875 L 28.445312 4.21875 C 29.175781 4.21875 29.769531 4.8125 29.769531 5.542969 L 29.769531 26.710938 C 29.769531 27.441406 29.175781 28.035156 28.445312 28.035156 L 3.308594 28.035156 C 2.578125 28.035156 1.984375 27.441406 1.984375 26.710938 L 1.984375 5.542969 C 1.984375 4.8125 2.578125 4.21875 3.308594 4.21875 Z M 3.308594 4.21875 "/>
<path style=" stroke:none;fill-rule:nonzero;fill:rgb(3.921569%,5.098039%,5.490196%);fill-opacity:0.235294;" d="M 1.984375 9.511719 L 29.769531 9.511719 L 29.769531 10.171875 L 1.984375 10.171875 Z M 1.984375 9.511719 "/>
<path style=" stroke:none;fill-rule:nonzero;fill:rgb(0%,0%,0%);fill-opacity:0.235294;" d="M 3.308594 28.046875 C 2.574219 28.046875 1.984375 27.457031 1.984375 26.722656 L 1.984375 26.378906 C 1.984375 27.113281 2.574219 27.703125 3.308594 27.703125 L 28.445312 27.703125 C 29.179688 27.703125 29.769531 27.113281 29.769531 26.378906 L 29.769531 26.722656 C 29.769531 27.457031 29.179688 28.046875 28.445312 28.046875 Z M 3.308594 28.046875 "/>
<path style="fill-rule:nonzero;fill:url(#linear2);stroke-width:11.338583;stroke-linecap:round;stroke-linejoin:miter;stroke:rgb(12.941176%,12.941176%,12.941176%);stroke-opacity:1;stroke-miterlimit:4;" d="M 200.059638 255.093753 C 155.654429 255.093753 119.988543 290.759639 119.988543 335.164848 L 119.988543 575.141934 L 1800.064346 575.141934 L 1800.064346 335.164848 C 1800.064346 290.759639 1764.39846 255.093753 1719.993251 255.093753 Z M 200.059638 255.093753 " transform="matrix(0.016538,0,0,0.016538,0,0)"/>
<path style=" stroke:none;fill-rule:nonzero;fill:rgb(100%,100%,100%);fill-opacity:0.392157;" d="M 3.308594 4.296875 C 2.574219 4.296875 1.984375 4.886719 1.984375 5.617188 L 1.984375 5.960938 C 1.984375 5.230469 2.574219 4.640625 3.308594 4.640625 L 28.445312 4.640625 C 29.179688 4.640625 29.769531 5.230469 29.769531 5.960938 L 29.769531 5.617188 C 29.769531 4.886719 29.179688 4.296875 28.445312 4.296875 Z M 3.308594 4.296875 "/>
<path style=" stroke:none;fill-rule:nonzero;fill:rgb(12.941176%,12.941176%,12.941176%);fill-opacity:1;" d="M 3.308594 4.125 C 2.523438 4.125 1.890625 4.757812 1.890625 5.542969 L 1.890625 26.710938 C 1.890625 27.496094 2.523438 28.128906 3.308594 28.128906 L 28.445312 28.128906 C 29.230469 28.128906 29.863281 27.496094 29.863281 26.710938 L 29.863281 5.542969 C 29.863281 4.757812 29.230469 4.125 28.445312 4.125 Z M 3.308594 4.3125 L 28.445312 4.3125 C 29.128906 4.3125 29.675781 4.859375 29.675781 5.542969 L 29.675781 26.710938 C 29.675781 27.394531 29.128906 27.941406 28.445312 27.941406 L 3.308594 27.941406 C 2.625 27.941406 2.078125 27.394531 2.078125 26.710938 L 2.078125 5.542969 C 2.078125 4.859375 2.625 4.3125 3.308594 4.3125 Z M 3.308594 4.3125 "/>
<path style="fill-rule:nonzero;fill:url(#linear3);stroke-width:3;stroke-linecap:round;stroke-linejoin:miter;stroke:rgb(12.941176%,12.941176%,12.941176%);stroke-opacity:1;stroke-miterlimit:4;" d="M 333.405661 -121.07147 C 342.154826 -121.07147 349.279146 -113.94715 349.279146 -105.135492 C 349.279146 -96.386327 342.154826 -89.262007 333.405661 -89.262007 C 324.594003 -89.262007 317.469683 -96.386327 317.469683 -105.135492 C 317.469683 -113.94715 324.594003 -121.07147 333.405661 -121.07147 Z M 333.405661 -121.07147 " transform="matrix(0.062506,0,0,0.062506,0,13.438783)"/>
<path style="fill-rule:nonzero;fill:url(#linear4);stroke-width:3;stroke-linecap:round;stroke-linejoin:miter;stroke:rgb(12.941176%,12.941176%,12.941176%);stroke-opacity:1;stroke-miterlimit:4;" d="M 386.275613 -121.07147 C 395.087271 -121.07147 402.149097 -113.94715 402.149097 -105.135492 C 402.149097 -96.386327 395.087271 -89.262007 386.275613 -89.262007 C 377.526448 -89.262007 370.402128 -96.386327 370.402128 -105.135492 C 370.402128 -113.94715 377.526448 -121.07147 386.275613 -121.07147 Z M 386.275613 -121.07147 " transform="matrix(0.062506,0,0,0.062506,0,13.438783)"/>
<path style="fill-rule:nonzero;fill:url(#linear5);stroke-width:3;stroke-linecap:round;stroke-linejoin:miter;stroke:rgb(12.941176%,12.941176%,12.941176%);stroke-opacity:1;stroke-miterlimit:4;" d="M 439.208058 -121.07147 C 447.957222 -121.07147 455.081542 -113.94715 455.081542 -105.135492 C 455.081542 -96.386327 447.957222 -89.262007 439.208058 -89.262007 C 430.458893 -89.262007 423.334574 -96.386327 423.334574 -105.135492 C 423.334574 -113.94715 430.458893 -121.07147 439.208058 -121.07147 Z M 439.208058 -121.07147 " transform="matrix(0.062506,0,0,0.062506,0,13.438783)"/>
<path style=" stroke:none;fill-rule:nonzero;fill:url(#linear6);" d="M 16.539062 11.496094 C 16.277344 11.496094 16.039062 11.652344 15.933594 11.890625 L 10.640625 23.796875 C 10.449219 24.234375 10.769531 24.726562 11.246094 24.726562 L 13.230469 24.726562 C 13.496094 24.726562 13.738281 24.566406 13.839844 24.320312 L 15.324219 20.757812 L 17.632812 20.757812 L 18.203125 24.171875 C 18.253906 24.492188 18.53125 24.726562 18.851562 24.726562 L 20.839844 24.726562 C 21.253906 24.726562 21.566406 24.347656 21.484375 23.9375 L 19.171875 12.03125 C 19.109375 11.722656 18.839844 11.496094 18.523438 11.496094 Z M 16.867188 14.140625 L 17.199219 14.140625 L 17.53125 18.773438 L 15.875 18.773438 Z M 16.867188 14.140625 "/>
<path style=" stroke:none;fill-rule:nonzero;fill:rgb(98.431373%,98.431373%,98.431373%);fill-opacity:1;" d="M 16.539062 11.578125 C 16.277344 11.578125 16.039062 11.730469 15.933594 11.972656 L 10.640625 23.878906 C 10.585938 24.007812 10.574219 24.144531 10.597656 24.269531 C 10.605469 24.222656 10.621094 24.171875 10.640625 24.125 L 15.933594 12.21875 C 16.039062 11.980469 16.277344 11.824219 16.539062 11.824219 L 18.523438 11.824219 C 18.839844 11.824219 19.109375 12.050781 19.171875 12.359375 L 21.484375 24.265625 C 21.488281 24.269531 21.488281 24.269531 21.488281 24.269531 C 21.503906 24.191406 21.503906 24.105469 21.484375 24.019531 L 19.171875 12.113281 C 19.109375 11.800781 18.839844 11.578125 18.523438 11.578125 Z M 15.929688 18.855469 L 15.875 19.101562 L 17.53125 19.101562 L 17.511719 18.855469 Z M 15.929688 18.855469 "/>
<path style=" stroke:none;fill-rule:nonzero;fill:rgb(0%,0%,0%);fill-opacity:0.235294;" d="M 16.867188 14.234375 L 15.875 18.867188 L 15.964844 18.867188 L 16.867188 14.644531 L 17.199219 14.644531 L 17.5 18.867188 L 17.53125 18.867188 L 17.199219 14.234375 Z M 15.324219 20.847656 L 13.839844 24.410156 C 13.738281 24.65625 13.496094 24.816406 13.230469 24.816406 L 11.246094 24.816406 C 10.941406 24.816406 10.703125 24.621094 10.617188 24.363281 C 10.480469 24.78125 10.789062 25.230469 11.246094 25.230469 L 13.230469 25.230469 C 13.496094 25.230469 13.738281 25.070312 13.839844 24.824219 L 15.324219 21.261719 L 17.632812 21.261719 L 18.203125 24.675781 C 18.253906 24.996094 18.53125 25.230469 18.851562 25.230469 L 20.839844 25.230469 C 21.253906 25.230469 21.566406 24.851562 21.484375 24.441406 L 21.46875 24.351562 C 21.386719 24.617188 21.140625 24.816406 20.839844 24.816406 L 18.851562 24.816406 C 18.53125 24.816406 18.253906 24.585938 18.203125 24.265625 L 17.632812 20.847656 Z M 15.324219 20.847656 "/>
<path style="fill:none;stroke-width:11.338583;stroke-linecap:round;stroke-linejoin:round;stroke:rgb(12.941176%,12.941176%,12.941176%);stroke-opacity:1;stroke-miterlimit:4;" d="M 1000.061992 695.130478 C 984.236731 695.130478 969.828658 704.578394 963.451314 718.986467 L 643.403133 1438.917726 C 631.829435 1465.371893 651.197664 1495.132831 680.013811 1495.132831 L 800.002354 1495.132831 C 816.063812 1495.132831 830.708083 1485.448717 836.849229 1470.568248 L 926.604439 1255.155745 L 1066.197409 1255.155745 L 1100.682306 1461.592727 C 1103.752878 1480.960956 1120.522931 1495.132831 1139.89116 1495.132831 L 1260.115901 1495.132831 C 1285.152881 1495.132831 1304.048714 1472.221633 1299.088558 1447.420852 L 1159.25939 727.489592 C 1155.480223 708.829957 1139.182566 695.130478 1120.050535 695.130478 Z M 1019.902617 855.036469 L 1039.97944 855.036469 L 1060.056263 1135.167202 L 959.908345 1135.167202 Z M 1019.902617 855.036469 " transform="matrix(0.016538,0,0,0.016538,0,0)"/>
</g>
</svg>
